src/gui/emoticons/wink.svg

<svg xmlns="http://www.w3.org/2000/svg" xmlns:xlink="http://www.w3.org/1999/xlink" width="16pt" height="16pt" version="1.1" viewBox="0 0 16 16"><defs><linearGradient id="linear0" x1="64" x2="64" y1="19.717" y2="107.7" gradientTransform="matrix(0.125,0,0,0.125,0,0)" gradientUnits="userSpaceOnUse"><stop offset=".5" style="stop-color:#fee133;stop-opacity:1"/><stop offset=".612" style="stop-color:#fede32;stop-opacity:1"/><stop offset=".708" style="stop-color:#fcd32f;stop-opacity:1"/><stop offset=".797" style="stop-color:#fac12b;stop-opacity:1"/><stop offset=".883" style="stop-color:#f7a924;stop-opacity:1"/><stop offset=".9" style="stop-color:#f6a323;stop-opacity:1"/></linearGradient></defs><g id="surface1"><path style="stroke:none;fill-rule:nonzero;fill:url(#linear0)" d="M 8 14.984375 C 4.507812 14.984375 0.75 12.800781 0.75 8 C 0.75 3.199219 4.507812 1.015625 8 1.015625 C 9.933594 1.015625 11.726562 1.652344 13.046875 2.816406 C 14.488281 4.089844 15.25 5.882812 15.25 8 C 15.25 10.109375 14.488281 11.894531 13.046875 13.171875 C 11.722656 14.34375 9.929688 14.984375 8 14.984375 Z M 8 14.984375"/><path style="stroke:none;fill-rule:nonzero;fill:#eb8f00;fill-opacity:1" d="M 8 1.265625 C 9.875 1.265625 11.609375 1.882812 12.878906 3.003906 C 14.265625 4.230469 15 5.957031 15 8 C 15 10.035156 14.265625 11.757812 12.878906 12.984375 C 11.601562 14.113281 9.871094 14.734375 8 14.734375 C 6.121094 14.734375 4.386719 14.121094 3.121094 13.007812 C 1.734375 11.789062 1 10.058594 1 8 C 1 5.933594 1.734375 4.199219 3.121094 2.980469 C 4.382812 1.875 6.117188 1.265625 8 1.265625 M 8 0.765625 C 4.105469 0.765625 0.5 3.265625 0.5 8 C 0.5 12.710938 4.105469 15.234375 8 15.234375 C 11.894531 15.234375 15.5 12.644531 15.5 8 C 15.5 3.328125 11.894531 0.765625 8 0.765625 Z M 8 0.765625"/><path style="stroke:none;fill-rule:nonzero;fill:#242424;fill-opacity:1" d="M 9.082031 7.1875 C 9.082031 7.1875 9.089844 7.179688 9.109375 7.167969 C 9.113281 7.160156 9.125 7.152344 9.136719 7.140625 C 9.152344 7.128906 9.175781 7.113281 9.199219 7.097656 C 9.25 7.066406 9.296875 7.039062 9.359375 7.007812 C 9.421875 6.976562 9.488281 6.945312 9.566406 6.921875 C 9.722656 6.863281 9.90625 6.824219 10.101562 6.804688 C 10.296875 6.785156 10.507812 6.796875 10.714844 6.820312 C 10.777344 6.832031 10.800781 6.835938 10.859375 6.847656 C 10.917969 6.859375 10.96875 6.871094 11.015625 6.882812 C 11.117188 6.90625 11.210938 6.941406 11.304688 6.976562 C 11.488281 7.046875 11.65625 7.136719 11.789062 7.230469 C 11.921875 7.324219 12.023438 7.425781 12.089844 7.503906 C 12.125 7.539062 12.148438 7.574219 12.164062 7.597656 C 12.179688 7.617188 12.191406 7.632812 12.191406 7.632812 C 12.300781 7.785156 12.265625 8 12.109375 8.109375 C 11.988281 8.195312 11.828125 8.191406 11.710938 8.105469 L 11.675781 8.078125 C 11.675781 8.078125 11.648438 8.058594 11.601562 8.03125 C 11.550781 8 11.476562 7.957031 11.378906 7.914062 C 11.285156 7.867188 11.164062 7.824219 11.027344 7.785156 C 10.960938 7.765625 10.890625 7.746094 10.816406 7.730469 C 10.777344 7.722656 10.746094 7.714844 10.710938 7.710938 C 10.683594 7.703125 10.617188 7.695312 10.59375 7.691406 C 10.441406 7.667969 10.289062 7.660156 10.148438 7.660156 C 10.007812 7.660156 9.878906 7.671875 9.773438 7.6875 C 9.722656 7.695312 9.675781 7.703125 9.632812 7.714844 C 9.59375 7.722656 9.554688 7.734375 9.535156 7.738281 C 9.523438 7.742188 9.511719 7.742188 9.503906 7.746094 C 9.488281 7.75 9.476562 7.757812 9.464844 7.761719 C 9.445312 7.765625 9.4375 7.773438 9.4375 7.773438 C 9.257812 7.84375 9.058594 7.757812 8.984375 7.582031 C 8.929688 7.4375 8.972656 7.28125 9.082031 7.1875 Z M 9.082031 7.1875"/><path style="stroke:none;fill-rule:nonzero;fill:#242424;fill-opacity:1" d="M 8.996094 7.226562 C 8.996094 7.226562 9.003906 7.21875 9.011719 7.199219 C 9.019531 7.183594 9.042969 7.148438 9.074219 7.105469 C 9.132812 7.023438 9.214844 6.921875 9.324219 6.8125 C 9.433594 6.703125 9.566406 6.585938 9.714844 6.476562 C 9.792969 6.421875 9.867188 6.363281 9.953125 6.3125 C 10.035156 6.257812 10.113281 6.210938 10.207031 6.15625 C 10.285156 6.113281 10.375 6.0625 10.464844 6.019531 C 10.550781 5.976562 10.640625 5.941406 10.726562 5.902344 C 10.898438 5.832031 11.066406 5.777344 11.214844 5.742188 C 11.363281 5.703125 11.496094 5.683594 11.59375 5.675781 C 11.6875 5.671875 11.75 5.671875 11.75 5.671875 C 11.9375 5.679688 12.085938 5.839844 12.078125 6.03125 C 12.074219 6.171875 11.984375 6.292969 11.855469 6.339844 L 11.828125 6.351562 C 11.828125 6.351562 11.792969 6.363281 11.734375 6.386719 C 11.671875 6.410156 11.578125 6.445312 11.464844 6.496094 C 11.351562 6.546875 11.21875 6.609375 11.078125 6.679688 C 11.007812 6.71875 10.933594 6.757812 10.859375 6.796875 C 10.785156 6.835938 10.714844 6.875 10.632812 6.921875 C 10.5625 6.960938 10.484375 7.007812 10.414062 7.046875 C 10.339844 7.09375 10.269531 7.136719 10.203125 7.175781 C 10.066406 7.261719 9.945312 7.34375 9.84375 7.414062 C 9.742188 7.484375 9.664062 7.546875 9.609375 7.585938 C 9.589844 7.605469 9.570312 7.617188 9.550781 7.636719 C 9.535156 7.648438 9.527344 7.65625 9.527344 7.65625 C 9.386719 7.785156 9.167969 7.773438 9.039062 7.632812 C 8.9375 7.515625 8.925781 7.355469 8.996094 7.226562 Z M 8.996094 7.226562"/><path style="fill-rule:nonzero;fill:#eb8f00;fill-opacity:1;stroke-width:1;stroke-linecap:butt;stroke-linejoin:miter;stroke:#eb8f00;stroke-opacity:1;stroke-miterlimit:10" d="M 29.84375 43.8125 C 28.9375 43.8125 28.125 43.375 27.65625 42.6875 C 27.1875 42 27.09375 41.125 27.40625 40.25 C 29.375 35.25 33.375 31.03125 38.40625 28.71875 C 40.28125 27.84375 42.25 27.25 44.28125 27 C 44.40625 26.96875 44.53125 26.96875 44.65625 26.96875 C 45.96875 26.96875 47 27.8125 47.1875 29.09375 C 47.375 30.21875 46.78125 31.625 45.3125 32.125 L 44.90625 31.40625 L 45.1875 32.15625 C 39.84375 34 35.09375 37.75 32.15625 42.46875 C 31.65625 43.3125 30.8125 43.8125 29.84375 43.8125 Z M 29.84375 43.8125" transform="matrix(0.125,0,0,0.125,0,0)"/><path style="stroke:none;fill-rule:nonzero;fill:#242424;fill-opacity:1" d="M 8.03125 11.804688 C 6.4375 11.804688 5.304688 10.980469 4.960938 10.457031 C 4.828125 10.257812 4.804688 10.039062 4.894531 9.875 C 4.960938 9.75 5.082031 9.679688 5.226562 9.679688 C 5.277344 9.679688 5.328125 9.6875 5.378906 9.703125 C 6.179688 9.953125 7.101562 10.085938 8.039062 10.085938 C 8.96875 10.085938 9.886719 9.953125 10.6875 9.703125 C 10.738281 9.6875 10.789062 9.679688 10.835938 9.679688 C 10.980469 9.679688 11.105469 9.75 11.171875 9.875 C 11.257812 10.039062 11.234375 10.257812 11.101562 10.457031 C 10.757812 10.980469 9.625 11.804688 8.03125 11.804688 Z M 8.03125 11.804688"/><path style="stroke:none;fill-rule:nonzero;fill:#242424;fill-opacity:1" d="M 5.582031 5.742188 C 5.058594 5.742188 4.582031 6.183594 4.582031 6.921875 C 4.582031 7.65625 5.058594 8.097656 5.582031 8.097656 C 6.109375 8.097656 6.582031 7.65625 6.582031 6.921875 C 6.582031 6.183594 6.109375 5.742188 5.582031 5.742188 Z M 5.582031 5.742188"/></g></svg>

<svg xmlns="http://www.w3.org/2000/svg" width="16pt" height="16pt" viewBox="0 0 16 16"><defs><linearGradient id="a" x1="64" x2="64" y1="19.717" y2="107.7" gradientTransform="scale(.125)" gradientUnits="userSpaceOnUse"><stop offset=".5" style="stop-color:#fee133;stop-opacity:1"/><stop offset=".612" style="stop-color:#fede32;stop-opacity:1"/><stop offset=".708" style="stop-color:#fcd32f;stop-opacity:1"/><stop offset=".797" style="stop-color:#fac12b;stop-opacity:1"/><stop offset=".883" style="stop-color:#f7a924;stop-opacity:1"/><stop offset=".9" style="stop-color:#f6a323;stop-opacity:1"/></linearGradient></defs><path d="M8 14.984C4.508 14.984.75 12.801.75 8 .75 3.2 4.508 1.016 8 1.016c1.934 0 3.727.636 5.047 1.8C14.488 4.09 15.25 5.883 15.25 8c0 2.11-.762 3.895-2.203 5.172C11.723 14.344 9.93 14.984 8 14.984m0 0" style="stroke:none;fill-rule:nonzero;fill:url(#a)"/><path d="M8 1.266c1.875 0 3.61.617 4.879 1.738C14.266 4.23 15 5.957 15 8c0 2.035-.734 3.758-2.121 4.984-1.277 1.13-3.008 1.75-4.879 1.75-1.879 0-3.613-.613-4.879-1.726C1.734 11.789 1 10.058 1 8c0-2.066.734-3.8 2.121-5.02C4.383 1.875 6.117 1.266 8 1.266m0-.5C4.105.766.5 3.266.5 8c0 4.71 3.605 7.234 7.5 7.234s7.5-2.59 7.5-7.234C15.5 3.328 11.895.766 8 .766m0 0" style="stroke:none;fill-rule:nonzero;fill:#eb8f00;fill-opacity:1"/><path d="M9.082 7.188q0-.001.027-.02c.004-.008.016-.016.028-.027a1.6 1.6 0 0 1 .43-.22c.156-.058.34-.097.535-.116s.406-.008.613.015l.144.028q.087.017.157.035c.101.023.195.058.289.094.183.07.351.16.484.253a1.7 1.7 0 0 1 .375.368l.027.035a.34.34 0 0 1-.082.476.34.34 0 0 1-.398-.004l-.035-.027s-.028-.02-.074-.047a2 2 0 0 0-.223-.117 2 2 0 0 0-.352-.129 3 3 0 0 0-.21-.055c-.04-.007-.07-.015-.106-.02-.027-.007-.094-.015-.117-.019a3 3 0 0 0-.82-.003q-.077.01-.141.027c-.04.008-.078.02-.098.023q-.018.004-.031.008-.022.008-.04.016a.351.351 0 0 1-.48-.18.35.35 0 0 1 .098-.394m0 0" style="stroke:none;fill-rule:nonzero;fill:#242424;fill-opacity:1"/><path d="M8.996 7.227q.002.001.016-.028a2.346 2.346 0 0 1 .313-.387c.109-.109.241-.226.39-.335.078-.055.152-.114.238-.165.082-.054.16-.101.254-.156.078-.043.168-.093.258-.136.086-.043.176-.079.262-.118.171-.07.34-.125.488-.16.148-.039.281-.058.379-.066.094-.004.156-.004.156-.004a.345.345 0 0 1 .328.36.34.34 0 0 1-.223.308l-.027.012s-.035.011-.094.035a4 4 0 0 0-.27.11c-.112.05-.245.112-.386.183q-.106.058-.219.117c-.074.039-.144.078-.226.125l-.219.125q-.111.07-.21.129a10 10 0 0 0-.36.238c-.102.07-.18.133-.235.172-.02.02-.039.031-.058.05q-.024.019-.024.02a.346.346 0 0 1-.488-.023.355.355 0 0 1-.043-.406m0 0" style="stroke:none;fill-rule:nonzero;fill:#242424;fill-opacity:1"/><path d="M29.844 43.813c-.907 0-1.719-.438-2.188-1.126-.468-.687-.562-1.562-.25-2.437 1.969-5 5.969-9.219 11-11.531 1.875-.875 3.844-1.469 5.875-1.719.125-.031.25-.031.375-.031 1.313 0 2.344.843 2.532 2.125a2.754 2.754 0 0 1-1.876 3.031l-.406-.719.282.75C39.844 34 35.094 37.75 32.156 42.47c-.5.843-1.343 1.343-2.312 1.343Zm0 0" style="fill-rule:nonzero;fill:#eb8f00;fill-opacity:1;stroke-width:1;stroke-linecap:butt;stroke-linejoin:miter;stroke:#eb8f00;stroke-opacity:1;stroke-miterlimit:10" transform="scale(.125)"/><path d="M8.031 11.805c-1.594 0-2.726-.825-3.07-1.348-.133-.2-.156-.418-.066-.582a.36.36 0 0 1 .332-.195q.075 0 .152.023c.8.25 1.723.383 2.66.383.93 0 1.848-.133 2.649-.383a.5.5 0 0 1 .148-.023c.144 0 .27.07.336.195.086.164.062.383-.07.582-.344.523-1.477 1.348-3.07 1.348M5.582 5.742c-.523 0-1 .442-1 1.18 0 .734.477 1.176 1 1.176.527 0 1-.442 1-1.176 0-.738-.473-1.18-1-1.18m0 0" style="stroke:none;fill-rule:nonzero;fill:#242424;fill-opacity:1"/></svg>
